X:1
T:Sonatina I
T:LE BOUQUETIER. QUATRE SONATINES pour Piano seul composees PAR ANTON DIABELLI Op. 151. Neue Ausgabe, kritisch durchgeshehen un bearbeitet von C. Gurlitt. SONATINE I. 
T:Public Domain
T:Public Domain
T:Public Domain
T:Public Domain
T:Public Domain
T:Public Domain
T:Public Domain
T:Public Domain
T:Public Domain
C:Anton Diabelli
Z:Public Domain
%%score { 1 | ( 2 3 ) }
L:1/8
Q:1/4=70
M:3/4
K:G
V:1 treble nm="Piano" snm="Pno."
V:2 bass 
V:3 bass 
V:1
"_dolce"!p!"^Andantino Cantabile." (G>A) | B2 B2 B2 | (d2 c) z!p! A>B | c2 c2 c2 | %4
!>(! (e2!>)! d) z (B>c) |"_cresc." d2 d2 d2 |!f! e>f g2!>(! e>c!>)! |!p! B2 d2 c>A | G2 z2 :: %9
!p! F>G |!<(! A2 A2 A2!<)! |!>(! (^A2!>)! B) z (A>B) |!<(! ^c2 c2 c2!<)! |!>(! (^c2!>)! d) z c>d | %14
"_cresc." e2 e2 e2 | (^e2 f2)!f! g>=e | d2 f2 e2 |!p! .d2 (3z .d.e (3.f.g.a | %18
 (3.b.a.b (3.g.f.g (3.b.a.b | (3.d'.c'.b (3.c'.d.f (3.a.f.a | (3.c'.b.c' (3.a.^g.a (3.c'.b.c' | %21
 (3.e'.d'.^c' (3d'dg (3bgb |"_cresc." (3d'^c'd' (3g'f'e' (3d'=c'b | (3a^ga (3e'd'c' (3ba=g | %24
!f! (3fed (3cBA (3GFA |1 G2 z2 :|2 G2 z2!p! F>G || [FA]2!<(! [FA]2 [FA]2!<)! | %28
!>(! (e2!>)! d2) B>G |!p! F2 F2 F2 | (A>G) G2 f>g |!<(! [fa]2 [fa]2 [fa]2!<)! | %32
!>(! (e'2 d'2) b>!>)!g |!p! f2 f2 f2 | (3.g.d'.c' (3.b.a.g (3.f.e.f | (3.g.d.c (3.B.A.G (3.F.E.F | %36
!f! (3GBG (3DGD (3B,DB, | G, z!pp! [B,G]2 [B,G]2 | [B,G]4 |] %39
[K:C][M:6/8]!p![Q:3/8=120]"^Allegro""^Scherzo" !wedge!c2 z !wedge!e2 z | %40
[K:bass] !>!C,2 z[K:treble]!p!{d} (cBc) |[K:C] !wedge!d2 z !wedge!f2 z | %42
[K:bass] !>!G,,2 z[K:treble]!p!{e} (d^cd) | !wedge!e2 z!<(! !wedge!g2 z | %44
 !wedge!d2 z!<)! !wedge!f2 z |!f! G3- GAB | !wedge!c!wedge!G!wedge!E C2 !breath!z :: %47
!p! !wedge!d2 z !wedge!g2 z |[K:bass] !>!G,,2 z[K:treble]{e} (d^cd) | !wedge!_e2 z !wedge!g2 z | %50
[K:bass] !>!G,,2 z[K:treble]!p!{f} (_ede) | !wedge!f2 z[K:bass] !>!G,,2 z | %52
[K:treble]"_cresc." !wedge!^f2 z[K:bass] !>!G,,2 z |[K:treble] !wedge!g(^fa) !wedge!g(fa) | %54
 (g^fg =e=fd) |!f! !wedge!c2 z !wedge!e2 z |[K:bass] !>!C,2 z[K:treble]{d} (cBc) | %57
 !wedge!d2 z !wedge!f2 z |[K:bass] !>!G,,2 z[K:treble]{e} (d^cd) |[K:C] !wedge!e2 z !wedge!g2 z | %60
 !wedge!d2 z !wedge!f2 z | G3- GAB |1 !wedge!c!wedge!G!wedge!E C2 !breath!z :|2 %63
 !wedge!c!wedge!G!wedge!c !wedge!B!wedge!g!wedge!B || %64
 !wedge!c!wedge!G!wedge!c !wedge!B!wedge!g!wedge!B | c2 z !wedge![Gce]!wedge![Gce]!wedge![Gce] | %66
 [Gce]2 z [ceg]2 z | !fermata![egc']6 |]:[K:G][M:2/4][Q:1/4=112]"^Allegretto""^Rondo"!p! (B/c/) | %69
 (e/d/^c/d/) !wedge!B!wedge!g |!>(! d3!>)! B | (d/=c/B/c/) !wedge!A!wedge!d | (B2 !wedge!G)(B/c/) | %73
 (e/d/^c/d/) !wedge!B!wedge!g |!>(! d3!>)! B |!f! (A/B/^c/d/ e/f/g/e/) | d2 z ::!p! ((d/e/)) | %78
 (g/f/e/f/) df | (a/g/f/g/) dg | (b/a/^g/a/) da | (c'/b/d'/b/) =gd' | %82
 !wedge!^c'(e'/d'/ c'/d'/e'/c'/) | d'a fd | !wedge!^c(e/d/ c/d/e/c/) | d(e/d/ ^c/d/e/c/) | %86
 d(e/d/ ^c/d/e/c/) | d z z2 | z!f! (D/E/ F/G/A/B/) | =c z z2 | z (d/e/ f/g/a/b/) | %91
 c'/(^g/a/b/) c'/(g/a/b/) | c'(c'/b/"_dim." a)(a/g/ | f)(f/!>(!e/ d)(d/^c/)!>)! | %94
!p! (e/d/^c/d/) Bg |!>(! d3!>)! B | (d/=c/B/c/) !wedge!A!wedge!d | (B2 !wedge!G)(B/c/) | %98
"_cresc." (e/d/^c/d/) !wedge!B!wedge!g | g3 (e/=c/) |!f! (B/c/^c/d/ e/d/A/B/) | G2 z ::[K:C]!p! G | %103
 GeBc | Bd/c/ BG | Gf^cd | =ce/d/ cg |!<(! gabc'!<)! |!>(! d'>c'!>)! ba | (ag)(gB) | c2 z :: %111
!p! c' | (c'efg) | (fa/g/ f)a | (a^cde) | (df/e/ d)f | (fe)!wedge!e!wedge!e | c'>b (a/b/c'/d'/) | %118
!f! gc'/e'/ (g'/f'/d'/e'/) | c'2 z :|[K:G]!p! (B/c/) | (e/d/^c/d/) !wedge!B!wedge!g | d3 B | %123
 (d/=c/B/c/) !wedge!A!wedge!d | (B2 !wedge!G)(B/c/) | (e/d/^c/d/) !wedge!B!wedge!g | d3 B | %127
!f! (A/B/^c/d/ e/f/g/e/) | d2 z!p! (d/e/) | (g/f/e/f/) !wedge!d!wedge!f | %130
 (a/g/f/g/) !wedge!d!wedge!g | (b/a/^g/a/) !wedge!d!wedge!a | (c'/b/d'/b/) !wedge!=g!wedge!d' | %133
 !wedge!^c'(e'/d'/ c'/d'/e'/c'/) | !wedge!d'!wedge!a!wedge!f!wedge!d | !wedge!^c(e/d/ c/d/e/c/) | %136
 !wedge!d(e/d/ ^c/d/e/c/) | !wedge!d(e/d/ ^c/d/e/c/) | d z z2 | z!f! (D/E/ F/G/A/B/ | %140
 !wedge!=c) z z2 | z (d/e/ f/g/a/b/) | !wedge!c'/(^g/a/b/) !wedge!c'/(g/a/b/) | %143
 !wedge!c'(c'/b/"_dim." !wedge!a)(a/g/ | !wedge!f)!>(!(f/e/ !wedge!d)(d/^c/)!>)! | %145
!p! (e/d/^c/d/) !wedge!B!wedge!g | !>!d3 B | (d/=c/B/c/) !wedge!A!wedge!d | (B2 !wedge!G)(B/c/) | %149
"_cresc." (e/d/^c/d/) !wedge!B!wedge!g | g3 (e/=c/) |!f! (B/c/^c/d/ e/d/A/B/) | G2 z!p! d' | %153
 (ac') (fa) | (g/f/g/a/) !wedge!g!wedge!d | (Ac)(FA) | G2 z d' | (a/^g/a/c'/) (f/^e/f/a/) | %158
 (=g/f/g/b/) !wedge!d!wedge!B | (A/^G/A/c/) (F/^E/F/A/) | =G"_cresc."(D/=E/ F/G/A/B/) | %161
 (c/B/A/B/ c/d/e/f/ | !wedge!g)!f!(d/e/ f/g/a/b/) | (c'/b/a/b/ c'/d'/e'/f'/ | g') z [c'd'f'] z | %165
 [bd'g'] z [cdf] z | [Bdg] z z2 |!ff! [dgb]2 z2 | !fermata![B,DG]4 |] %169
V:2
 z2 | (3G,B,D (3G,B,D (3G,B,D | (3F,A,D (3F,A,D (3F,A,D | (3F,A,D (3F,A,D (3F,A,D | %4
 (3G,B,D (3G,B,D (3G,B,D | (3B,,D,G, (3B,,D,G, (3B,,D,G, | (3C,E,G, (3C,E,G, (3C,E,A, | %7
 (3D,G,B, (3D,G,B, (3D,F,C |!p! (3G,B,D G, z :: z2 | (3F,CD (3F,CD (3F,CD | %11
 (3G,B,D (3G,B,D (3G,B,D | (3F,^A,E (3F,A,E (3F,A,E |[K:treble] (3B,DF (3B,DF (3B,DF | %14
 (3A,^CG (3A,CG (3A,CG | (3DFA (3DFA (3G,B,E | (3A,DF (3A,DF (3A,^CG | (3DFA D z z2 | %18
[K:bass] [G,B,D] z [G,B,D] z z2 | [F,A,D] z [F,A,D] z z2 | [D,F,A,] z [D,F,A,] z z2 | %21
 [G,B,] z [G,B,] z z2 | !wedge![B,,D,G,]2 !wedge![B,,D,G,]2 z2 | [C,E,A,]2 [C,E,A,]2 z2 | %24
 [D,A,C]2 [D,A,C]2 [D,A,C]2 |1 (3G,B,D G, z :|2 (3G,B,D (3G,B,D (3G,B,D || (3G,CD (3G,CD (3G,CD | %28
 (3G,B,D (3G,B,D (3G,B,D | (3D,A,C (3D,A,C (3D,A,C | (3G,B,D (3G,B,D (3G,B,D | %31
 (3G,CD (3G,CD (3G,CD | (3G,B,D (3G,B,D (3G,B,D | (3D,A,C (3D,A,C (3D,A,C | %34
 [G,B,] z z2[K:treble] [DAc]2 | [GB] z z2[K:bass] [D,A,C]2 | [G,B,] z D, z B,, z | %37
 G,, z [G,,D,]2 [G,,D,]2 | [G,,D,]4 |][K:C][M:6/8][K:treble] (CEG) (CEG) | CEG CEG | %41
[K:C] B,FG B,FG | B,FG B,FG | CEG CEG |[K:bass] F,A,D F,A,D | G,DF G,DF | %46
 !wedge![CE]!wedge!G,!wedge!E, C,2 z :: (G,B,D) (G,B,D) | G,B,D!p! G,B,D | G,C_E G,CE | %50
 G,C_E G,CE | G,DF G,DF | G,C_E G,CE | [G,B,D] !>![G,C_E]2 [G,B,D] !>![G,C_E]2 | [G,B,D]2 z z3 | %55
[K:treble] !wedge![CEG]!wedge![CEG]!wedge![CEG] !wedge![CEG]!wedge![CEG]!wedge![CEG] | %56
 [CEG][CEG][CEG] [CEG][CEG][CEG] | [B,FG][B,FG][B,FG] [B,FG][B,FG][B,FG] | %58
 [B,FG][B,FG][B,FG] [B,FG][B,FG][B,FG] |[K:C] [CEG][CEG][CEG] [CEG][CEG][CEG] | %60
[K:bass] [F,A,D][F,A,D][F,A,D] [F,A,D][F,A,D][F,A,D] | [G,DF][G,DF][G,DF] [G,DF][G,DF][G,DF] |1 %62
 !wedge![CE]!wedge!G,!wedge!E, C,2 z :|2 [CE]2 z [G,DF][G,DF][G,DF] || [CE]2 z [G,DF][G,DF][G,DF] | %65
 [CE]2!ff! z [C,E,G,][C,E,G,][C,E,G,] | [C,E,G,]2 z [C,E,G,]2 z | !fermata![C,,G,,]6 |]: %68
[K:G][M:2/4] z | x [B,D][B,D][B,D] | x [B,D][B,D][B,D] | x [CD][CD][CD] | x [B,D][B,D][B,D] | %73
 x [B,D][B,D][B,D] | x [B,D][B,D][B,D] |[K:treble] [A,DF] z [A,^CG] z | [DF]A[DF] :: z | %78
 z [Ac][Ac][Ac] | z [GB][GB][GB] | z [Fc][Fc][Fc] | z [GB][GB][GB] | [DG_B] z [DGB] z | [DFA]2 z2 | %84
[K:bass] [D,G,_B,] z [D,G,B,] z | [D,F,A,] z [D,G,_B,]2 | [D,F,A,] z [D,G,_B,]2 | %87
 [D,F,A,](D,/E,/ F,/G,/A,/B,/) | C z z2 |[K:treble] z (D/E/ F/G/A/B/) | c z z2 | %91
 [DFAc] z [DFAc] z | [DFAc] z z2 | z4 |[K:bass] z [B,D][B,D][B,D] | x [B,D][B,D][B,D] | %96
 x [CD][CD][CD] | x [B,D][B,D][B,D] | x [G,B,D][G,B,D][G,B,D] | E,[G,C]C,[E,A,] | %100
 [D,G,B,] z [D,F,C] z | [G,B,]D[G,B,] ::[K:C] z | ([CE]G,[CE]G,) | ([DF]G,[DF]G,) | %105
 ([B,F]G,[B,F]G,) | ([CE]G,[CE]G,) | z [G,C][G,C][G,C] | z [A,D][A,D][A,D] | z [DF][DF][DF] | %110
 [CE]G[CE] :: z |[K:treble] [G_B]C[GB]C | [FA]C[FA]C | [EG]A,[EG]A, | [DF]A,[DF]A, | %116
[K:bass] z [B,DE][B,DE][B,DE] | A,[CE]F,[A,D] | [G,CE] z [G,B,F] z | [CE]G[CE] :|[K:G] z | %121
 x [B,D][B,D][B,D] | x [B,D][B,D][B,D] | x [CD][CD][CD] | x [B,D][B,D][B,D] | x [B,D][B,D][B,D] | %126
 x [B,D][B,D][B,D] |[K:treble] [A,DF] z [A,^CG] z | [DF]A[DF] z | z [A=c][Ac][Ac] | %130
 z [GB][GB][GB] | z [Fc][Fc][Fc] | z [GB][GB][GB] | [DG_B] z [DGB] z | [DFA]2 z2 | %135
[K:bass] [D,G,_B,] z [D,G,B,] z | [D,F,A,] z [D,G,_B,]2 | [D,F,A,] z [D,G,_B,]2 | %138
 [D,F,A,]!f!(D,/E,/ F,/G,/A,/B,/ | !wedge!C) z z2 |[K:treble] z (D/E/ F/G/A/B/ | !wedge!c) z z2 | %142
 [DFAc] z [DFAc] z | [DFAc] z z2 | z4 |[K:bass] z [B,D][B,D][B,D] | x [B,D][B,D][B,D] | %147
 x [CD][CD][CD] | x [B,D][B,D][B,D] | x [G,B,D][G,B,D][G,B,D] | E,[G,C]C,[E,A,] | %151
 [D,G,B,] z [D,F,C] z | [G,B,]D[G,B,]D |"^dolce" [G,C]D[G,C]D | [G,B,]D[G,B,]D | [G,C]D[G,C]D | %156
 [G,B,]D[G,B,]D | [G,C]D[G,C]D | [G,B,]D[G,B,]D | [G,C]D[G,C]D | [G,B,] z z2 | [D,A,C]4 | %162
 [G,B,] z z2 |[K:treble] [DAc]4 | [GB] z [DA] z | [GB] z[K:bass] [D,A,] z | [G,B,] z z2 | %167
 [G,,D,]2 z2 | !fermata![G,,D,]4 |] %169
V:3
 x2 | x6 | x6 | x6 | x6 | x6 | x6 | x6 | x4 :: x2 | x6 | x6 | x6 |[K:treble] x6 | x6 | x6 | x6 | %17
 x6 |[K:bass] x6 | x6 | x6 | x6 | x6 | x6 | x6 |1 x4 :|2 x6 || x6 | x6 | x6 | x6 | x6 | x6 | x6 | %34
 x4[K:treble] x2 | x4[K:bass] x2 | x6 | x6 | x4 |][K:C][M:6/8][K:treble] x6 | x6 |[K:C] x6 | x6 | %43
 x6 |[K:bass] x6 | x6 | x6 :: x6 | x6 | x6 | x6 | x6 | x6 | x6 | x6 |[K:treble] x6 | x6 | x6 | x6 | %59
[K:C] x6 |[K:bass] x6 | x6 |1 x6 :|2 x6 || x6 | x6 | x6 | x6 |]:[K:G][M:2/4] x | G,4 | G,4 | F,4 | %72
 G,4 | G,4 | G,4 |[K:treble] x4 | x3 :: x | D4 | D4 | D4 | D4 | x4 | x4 |[K:bass] x4 | x4 | x4 | %87
 x4 | x4 |[K:treble] x4 | x4 | x4 | x4 | x4 |[K:bass] G,4 | G,4 | F,4 | G,4 | =F,4 | x4 | x4 | %101
 x3 ::[K:C] x | x4 | x4 | x4 | x4 | E,4 | F,4 | G,4 | x3 :: x |[K:treble] x4 | x4 | x4 | x4 | %116
[K:bass] ^G,4 | x4 | x4 | x3 :|[K:G] x | G,4 | G,4 | F,4 | G,4 | G,4 | G,4 |[K:treble] x4 | x3 z | %129
 D4 | D4 | D4 | D4 | x4 | x4 |[K:bass] x4 | x4 | x4 | x4 | x4 |[K:treble] x4 | x4 | x4 | x4 | x4 | %145
[K:bass] G,4 | G,4 | F,4 | G,4 | =F,4 | x4 | x4 | x3 z | x4 | x3 z | x4 | x3 z | x4 | x3 z | x4 | %160
 x4 | x4 | x4 |[K:treble] x4 | x4 | x2[K:bass] x2 | x4 | x4 | x4 |] %169

